X: 683
T: Eviç Seyir
C: Erol Bingöl
O: Turkey
F: http://compmusic.upf.edu/node/140
N: evic--seyir--devrihindi--1--erol_bingol
N: makam= evic
N: form= seyir
N: usul= devrihindi = 7/4
M: 7/4
L: 1/16
K: C _1/4B ^f ^c 
Q: 1/4=120
%%MIDI tuningsystem comma53
d2 f2 f2 g3/2f/ ^eg f2 e2  | fg ab ag g3/2f/ ^eg f4  | \
w:   |   | 
g2 a2 a2 g2 ag =f2 e2  | 
w:   | 
e=f ga gf ed d=c d4  | =c2 d2 d2 e=f ed dc2B  | 
w:   |   | 
=cB e2 dc c_2/4B BA A4  | A2 B2 d2 =c2 B2 A2 G2  | \
w:   |   | 
AB =c2 BA AG F^E F4  | 
w:   | 
|


